X:194
T:Angry Peeler, The
R:jig
H:See also #329, #333
Z:id:hn-jig-194
M:6/8
K:G
BAB GED|B,DD GED|~G3 AGE|ABA AGA|~B3 GED|B,DD GED|~G3 AGE|GAG G2A:|
|:B2A Bcd|ege dBA|~G3 AGE|ABA AGA|B2A Bcd|ege dBA|~G3 AGE|GAG G2A:|

